X: 127104
T: HASTE TO THE WEDDING
P: Same figure.
%R: jig
B: James Kerr "Merry Melodies" v.1 p.27 s.1 #4
Z: 2017 John Chambers <jc:trillian.mit.edu>
N: The "Same figure" annotation is a mystery.
M: 6/8
L: 1/8
K: D
uA |\
AFA Aaf | ede fdB | ABA AdF | FEE E2 uA |\
AFA Aaf | ede fdB | ABA Aaf | ded d2 ||
ua |\
afa afa | bgb bgb | afa agf | efe efg |\
a3 f3 | ede fdB | ABA faf | ded d2 |]

%%sep 1 1 500
%%sep 1 1 500

